/JOB
//NAME MT_IN-MACHINE
//POS
///NPOS 11,0,0,0,0,0
///TOOL 0
///POSTYPE PULSE
///PULSE
C00000=-96624,39231,166355,179216,191945,-99409
C00001=-52029,135839,328747,145346,174944,-161417
C00002=-51524,140135,323668,147308,174598,-154998
C00003=-52029,135839,328747,145346,174944,-161417
C00004=-52030,135836,328749,145348,174946,234232
C00005=-47064,173445,397876,138204,170868,208398
C00006=-46734,174684,391755,139636,171038,213558
C00007=-47064,173445,397876,138204,170868,208398
C00008=-52030,135836,328749,145348,174946,234232
C00009=-52029,135839,328747,145346,174944,-161417
C00010=-96624,39231,166355,179216,191945,-99409
//INST
///DATE 2023/12/04 16:50
///ATTR SC,RW
///GROUP1 RB1
NOP
MOVJ C00000 VJ=80.00
MOVL C00001 V=500.0 PL=0
IFTHENEXP B000=1
	 JUMP *NO_PICK
ENDIF
MOVL C00002 V=100.0 PL=0
CALL JOB:GRIP_2FG7-1
MOVL C00003 V=100.0 PL=0
*NO_PICK
IFTHENEXP B001=1
	 JUMP *NO_PLACE
ENDIF
MOVJ C00004 VJ=80.00 PL=0
MOVJ C00005 VJ=80.00 PL=0
MOVL C00006 V=100.0 PL=0
CALL JOB:OPEN_2FG7-2
MOVL C00007 V=100.0 PL=0
MOVJ C00008 VJ=80.00 PL=0
MOVJ C00009 VJ=80.00 PL=0
*NO_PLACE
MOVL C00010 V=500.0
END
