/JOB
//NAME MT_IN-MACHINE
//POS
///NPOS 22,0,0,0,0,0
///TOOL 0
///POSTYPE PULSE
///PULSE
C00000=-96624,39231,166355,179216,191945,-99409
C00001=-51456,135516,328156,145412,174599,-161191
C00002=-57185,129505,317171,146899,178052,-199509
C00003=-50593,127104,312804,147138,174043,-197929
C00004=-48964,137265,331372,145040,173083,-204892
C00005=-55207,140971,338215,144184,176837,-207537
C00006=-57185,129505,317171,146899,178052,-199509
C00007=-51456,135516,328156,145412,174599,-161191
C00008=-50804,140433,324169,147222,174164,-155176
C00009=-52029,135839,328747,145346,174944,-161417
C00010=-57185,129505,317171,146899,178052,-199509
C00011=-50593,127104,312804,147138,174043,-197929
C00012=-48527,140419,337187,144409,172796,-207083
C00013=-54799,144275,344332,143425,176544,-209881
C00014=-57185,129505,317171,146899,178052,-199509
C00015=-52030,135836,328749,145348,174946,234232
C00016=-47064,173445,397876,138204,170868,208398
C00017=-46771,174945,391232,139778,171094,214096
C00018=-47064,173445,397876,138204,170868,208398
C00019=-89336,46625,177489,174588,189498,291447
C00020=-108848,29406,151771,186997,195910,-96413
C00021=-108848,29406,151771,186997,195910,-96413
//INST
///DATE 2023/12/06 18:04
///ATTR SC,RW
///GROUP1 RB1
NOP
MOVJ C00000 VJ=80.00
DOUT OT#(2) ON
MOVL C00001 V=500.0 PL=0
MOVJ C00002 VJ=40.00
MOVL C00003 V=150.0
MOVL C00004 V=150.0
MOVL C00005 V=150.0
MOVL C00006 V=150.0
MOVJ C00007 VJ=40.00
DOUT OT#(529) OFF
TIMER T=0.500
MOVL C00008 V=100.0 PL=0  //pick
CALL JOB:GRIP_2FG7-1
MOVL C00009 V=100.0 PL=0
MOVJ C00010 VJ=40.00
MOVL C00011 V=150.0
MOVL C00012 V=150.0
MOVL C00013 V=150.0
MOVL C00014 V=150.0
DOUT OT#(2) OFF
IFTHENEXP B001=1
	 JUMP *NO_PLACE
ENDIF
MOVJ C00015 VJ=80.00 PL=0
MOVJ C00016 VJ=80.00 PL=0
MOVL C00017 V=100.0 PL=0
CALL JOB:OPEN_2FG7-2
MOVL C00018 V=100.0 PL=0
DOUT OT#(529) ON
MOVL C00019 V=500.0 PL=0
MOVJ C00020 VJ=80.00 PL=0
*NO_PLACE
MOVL C00021 V=500.0
END
